X:63
T: Der Nachtjger (Band 1), S. 186
N: P0838
O: Lothringen
S: PINCK, Louis: Verklingende Weisen, Bd 1, Metz 1928]
R: Jagen]
M: 4/4
L: 1/8
K: F
C2 | C2F2F2A2 | A2GFG2
A2 | G3AG2F2 | E2D2C2
FG | A2A2A2Gc | B2AGG2
A2 | cBc2B2G2 | F4z2

@@@ Tune index: 7613
